src/assets/bubbles.svg

<svg width="55" height="78" viewBox="0 0 55 78" fill="none" xmlns="http://www.w3.org/2000/svg">
<path d="M43.2225 62.8182C39.3196 64.6223 34.881 64.8923 30.7882 63.5746C26.6954 62.2569 23.248 59.4479 21.1308 55.7056C30.5485 56.624 34.1762 30.6962 53.1427 46.4088C53.3149 49.8215 52.4622 53.2077 50.6944 56.1319C48.9266 59.0562 46.3244 61.3848 43.2225 62.8182Z" fill="#86F8FA"/>
<path d="M21.1306 55.7054C20.9029 55.2935 20.6752 54.8816 20.4803 54.4573C19.415 52.1616 18.8714 49.6585 18.8886 47.1278C18.9058 44.5971 19.4832 42.1016 20.5795 39.8206C21.6758 37.5396 23.2636 35.5297 25.229 33.9354C27.1944 32.341 29.4886 31.2017 31.9466 30.5994C34.4046 29.997 36.9656 29.9466 39.4454 30.4516C41.9253 30.9567 44.2625 32.0047 46.2892 33.5204C48.3158 35.0361 49.9817 36.9819 51.167 39.2179C52.3522 41.454 53.0276 43.9248 53.1444 46.4528C33.8893 35.5529 30.5263 56.6247 21.1306 55.7054Z" fill="#B6F5FF"/>
<path d="M49.7024 53.2928C48.5566 50.7902 43.5179 50.6661 38.4591 53.0043C33.4004 55.3424 30.2256 59.2656 31.3824 61.7678C32.5393 64.27 37.5775 64.3829 42.6363 62.0448C47.695 59.7066 50.8602 55.8171 49.7024 53.2928Z" fill="#3FEEF5"/>
<path d="M21.131 55.7056C19.9531 53.5002 19.3059 51.0504 19.2409 48.5509C19.176 46.0515 19.695 43.5714 20.7567 41.3078C22.9157 36.9498 26.6637 33.2135 31.2767 31.8917C33.6022 31.2171 36.0459 31.0516 38.4411 31.4066C40.862 31.7268 43.1983 32.511 45.3221 33.7162C47.3951 35.0367 49.1495 36.8006 50.4586 38.8808C51.893 40.9638 52.7577 43.3857 52.9668 45.9061C53.1657 43.2943 52.595 40.6814 51.3252 38.3904C50.1039 36.0277 48.3312 33.9942 46.1571 32.462C43.905 31.0024 41.3721 30.0308 38.7216 29.61C36.0561 29.1582 33.3232 29.3092 30.7238 30.0519C28.1255 30.8418 25.7569 32.2484 23.8199 34.1517C21.9067 36.023 20.386 38.257 19.3466 40.7231C18.329 43.1906 17.963 45.8783 18.2838 48.5281C18.6026 51.1249 19.5829 53.5964 21.131 55.7056Z" fill="#95F8FA"/>
<path d="M26.844 21.2319C24.4088 20.4976 22.3382 18.8754 21.0422 16.6868C19.7463 14.4982 19.3196 11.9027 19.8467 9.41436C23.6645 13.5249 35.4437 3.45796 37.6806 17.8563C36.4173 19.436 34.7103 20.6016 32.7791 21.2031C30.8479 21.8047 28.7809 21.8147 26.844 21.2319Z" fill="#86F8FA"/>
<path d="M19.8242 9.41512C19.8907 9.14628 19.9572 8.87743 20.0348 8.60813C20.4652 7.17714 21.2066 5.85901 22.2061 4.74812C23.2055 3.63723 24.4382 2.76106 25.8159 2.18235C27.1936 1.60364 28.6823 1.33671 30.1752 1.40066C31.6681 1.46462 33.1285 1.85789 34.4516 2.55229C35.7748 3.2467 36.9281 4.22508 37.8288 5.41737C38.7296 6.60966 39.3556 7.98637 39.662 9.44892C39.9685 10.9115 39.9478 12.4237 39.6013 13.8773C39.2549 15.3309 38.5913 16.6899 37.6582 17.8571C33.3879 5.49424 23.6421 13.5256 19.8242 9.41512Z" fill="#B6F5FF"/>
<path d="M33.4284 19.596C33.9075 18.0462 31.7166 16.0081 28.562 15.0632C25.4074 14.1184 22.4563 14.6064 21.9555 16.1683C21.4547 17.7301 23.6673 19.7562 26.833 20.7006C29.9986 21.645 32.9488 21.1348 33.4284 19.596Z" fill="#3FEEF5"/>
<path d="M31.3226 20.1486C31.6157 19.194 29.9079 19.7193 28.1555 19.1709C26.4032 18.6226 25.2714 17.2614 24.9774 18.1938C24.6834 19.1262 25.8881 20.3735 27.6385 20.8776C29.389 21.3817 31.0401 21.0916 31.3226 20.1486Z" fill="#CDFFF5"/>
<path d="M19.8245 9.41562C20.1714 7.98208 20.8463 6.64865 21.7962 5.52037C22.7461 4.39209 23.945 3.49977 25.2985 2.9137C26.6152 2.33658 28.0364 2.03566 29.474 2.02955C30.9116 2.02343 32.3352 2.31225 33.6568 2.87814C34.9479 3.49052 36.0924 4.37331 37.0125 5.46667C37.9626 6.55811 38.6926 7.823 39.1624 9.19166C39.5588 10.5906 39.6423 12.0596 39.407 13.4944C39.2338 14.9777 38.6727 16.3891 37.7803 17.5864C38.8937 16.5087 39.6655 15.1272 39.9996 13.614C40.395 12.0813 40.4198 10.4765 40.0719 8.93227C39.643 7.4068 38.9008 5.98752 37.8926 4.76501C36.8922 3.51461 35.6225 2.50602 34.1782 1.81436C32.7165 1.13974 31.1141 0.825851 29.5058 0.89906C27.9272 0.981643 26.3801 1.37341 24.9524 2.05214C23.5294 2.74901 22.3092 3.79977 21.4089 5.10366C20.5214 6.38218 19.9759 7.86663 19.8245 9.41562Z" fill="#95F8FA"/>
<path d="M12.5165 76.873C11.0129 77.556 9.30882 77.6547 7.73638 77.15C6.16394 76.6453 4.83573 75.5733 4.01046 74.1429C7.62824 74.492 9.0329 64.4998 16.3353 70.5615C16.3932 71.8731 16.0614 73.1724 15.3818 74.2957C14.7022 75.4189 13.7052 76.3157 12.5165 76.873Z" fill="#86F8FA"/>
<path d="M3.98819 74.1435C3.89499 73.9854 3.81055 73.8223 3.73518 73.655C3.24652 72.1132 3.3368 70.4462 3.98913 68.9662C4.64146 67.4862 5.81103 66.2948 7.27875 65.6153C8.74648 64.9358 10.4116 64.8148 11.9622 65.275C13.5127 65.7351 14.8423 66.7449 15.7017 68.115C16.0561 68.8851 16.2598 69.7159 16.302 70.5626C8.88889 66.3792 7.60597 74.4926 3.98819 74.1435Z" fill="#B6F5FF"/>
<path d="M15.4523 73.0708C15.002 72.1027 13.0711 72.0607 11.1238 72.9617C9.17654 73.8628 7.95307 75.3769 8.39185 76.3345C8.83062 77.292 10.7842 77.3441 12.7315 76.4431C14.6788 75.542 15.9022 74.0279 15.4523 73.0708Z" fill="#3FEEF5"/>
<path d="M14.6809 74.2555C14.4011 73.6573 13.7995 74.6578 12.7225 75.157C11.6456 75.6561 10.5181 75.47 10.7642 76.0585C11.0103 76.647 12.1332 76.7225 13.2102 76.2233C14.2872 75.7242 14.9491 74.8431 14.6809 74.2555Z" fill="#CDFFF5"/>
<path d="M3.98831 74.1442C3.53572 73.2961 3.28644 72.3544 3.26013 71.3934C3.23382 70.4324 3.43121 69.4785 3.83671 68.6069C4.23269 67.7627 4.79617 67.0079 5.49287 66.3882C6.18958 65.7685 7.005 65.2969 7.88958 65.0021C8.7872 64.7432 9.73017 64.6815 10.6539 64.8211C11.5851 64.9381 12.4835 65.2401 13.2961 65.7096C14.1001 66.2157 14.7801 66.8961 15.2856 67.7005C15.8347 68.501 16.1638 69.4318 16.2399 70.3996C16.3119 69.3958 16.0933 68.3925 15.6103 67.5097C15.1393 66.5949 14.4566 65.8059 13.6191 65.2084C12.7534 64.6438 11.7782 64.2686 10.7574 64.1073C9.73152 63.917 8.67592 63.9607 7.6693 64.2351C6.66931 64.5382 5.75911 65.0822 5.01857 65.8194C4.27459 66.5436 3.68781 67.4133 3.29492 68.3743C2.9006 69.3216 2.75999 70.3554 2.88692 71.3736C3.00303 72.3782 3.383 73.3341 3.98831 74.1442V74.1442Z" fill="#95F8FA"/>
</svg>

<svg width="55" height="78" fill="none" xmlns="http://www.w3.org/2000/svg">
  <path d="M43.22 62.82a17.13 17.13 0 01-22.09-7.11c9.42.91 13.05-25.01 32.01-9.3a17.13 17.13 0 01-9.92 16.4z" fill="#86F8FA"/>
  <path d="M21.13 55.7a17.14 17.14 0 1132.01-9.25c-19.25-10.9-22.61 10.17-32 9.26z" fill="#B6F5FF"/>
  <path d="M49.7 53.3c-1.14-2.51-6.18-2.63-11.24-.3-5.06 2.34-8.23 6.27-7.08 8.77 1.16 2.5 6.2 2.61 11.26.27 5.05-2.33 8.22-6.22 7.06-8.75z" fill="#3FEEF5"/>
  <path d="M21.13 55.7a16.07 16.07 0 01-.37-14.4c2.16-4.35 5.9-8.09 10.52-9.4 2.32-.68 4.77-.85 7.16-.5 2.42.33 4.76 1.11 6.88 2.32a16.62 16.62 0 015.14 5.16 14.5 14.5 0 012.5 7.03 13.4 13.4 0 00-1.63-7.52c-1.23-2.36-3-4.4-5.17-5.93a19.21 19.21 0 00-15.44-2.4c-2.6.78-4.96 2.19-6.9 4.1a20.13 20.13 0 00-4.47 6.56 15.57 15.57 0 00-1.07 7.8c.32 2.6 1.3 5.08 2.85 7.19z" fill="#95F8FA"/>
  <path d="M26.84 21.23a10.15 10.15 0 01-7-11.82c3.82 4.11 15.6-5.95 17.84 8.45a10.14 10.14 0 01-10.84 3.37z" fill="#86F8FA"/>
  <path d="M19.82 9.42l.21-.81a10.14 10.14 0 1117.63 9.25c-4.27-12.37-14.02-4.33-17.84-8.44z" fill="#B6F5FF"/>
  <path d="M33.43 19.6c.48-1.55-1.71-3.6-4.87-4.54-3.15-.94-6.1-.45-6.6 1.1-.5 1.57 1.7 3.6 4.87 4.54 3.17.95 6.12.43 6.6-1.1z" fill="#3FEEF5"/>
  <path d="M31.32 20.15c.3-.96-1.41-.43-3.16-.98-1.76-.55-2.89-1.9-3.18-.98-.3.94.9 2.18 2.66 2.69 1.75.5 3.4.21 3.68-.73z" fill="#CDFFF5"/>
  <path d="M19.82 9.42a9.53 9.53 0 015.48-6.5 10.51 10.51 0 018.36-.04c1.29.61 2.43 1.5 3.35 2.59.95 1.09 1.68 2.35 2.15 3.72.4 1.4.48 2.87.25 4.3a8.5 8.5 0 01-1.63 4.1A7.9 7.9 0 0040 13.6c.4-1.53.42-3.13.07-4.68a11.4 11.4 0 00-5.9-7.12A10.06 10.06 0 0029.52.9c-1.58.08-3.13.47-4.56 1.15a9.25 9.25 0 00-5.13 7.37z" fill="#95F8FA"/>
  <path d="M12.52 76.87A6.65 6.65 0 014 74.14c3.62.35 5.02-9.64 12.33-3.58a6.65 6.65 0 01-3.82 6.31z" fill="#86F8FA"/>
  <path d="M3.99 74.14c-.1-.15-.18-.32-.25-.48A6.65 6.65 0 0115.7 68.1c.36.78.56 1.6.6 2.45C8.9 66.38 7.6 74.5 4 74.14z" fill="#B6F5FF"/>
  <path d="M15.45 73.07c-.45-.97-2.38-1-4.33-.1-1.94.9-3.17 2.4-2.73 3.36.44.96 2.4 1.01 4.34.11 1.95-.9 3.17-2.41 2.72-3.37z" fill="#3FEEF5"/>
  <path d="M14.68 74.26c-.28-.6-.88.4-1.96.9-1.07.5-2.2.31-1.96.9.25.59 1.37.66 2.45.16s1.74-1.38 1.47-1.96z" fill="#CDFFF5"/>
  <path d="M3.99 74.14a6.2 6.2 0 01-.15-5.53A6.88 6.88 0 017.89 65a7.03 7.03 0 015.4.7c.81.5 1.49 1.19 2 2 .54.8.87 1.72.95 2.69.07-1-.15-2-.63-2.89a6.46 6.46 0 00-2-2.3 7.33 7.33 0 00-2.85-1.1 6.93 6.93 0 00-3.1.13c-1 .3-1.9.84-2.64 1.58a7.56 7.56 0 00-1.73 2.55 5.9 5.9 0 00.7 5.77z" fill="#95F8FA"/>
</svg>
